X: 36097
T: Scholar, The
R: reel
M: 4/4
K: Dmajor
A|:defg fdec|A2AG FGA=c|BGGB cAAg|fdec dcBA|
defg fdec|A2AG FGA=c|BGGB cAAg|1 fdec d4:|2 fdec defg||
|:a2fa d2fa|d2fa agfa|g2eg =c2eg|=c2ef gedf|
a2fa d2fa|d2fa agfa|g2gf gbag|1 f/g/a ec defg:|2 f/g/a ec d4||

